svgs/regular/meter.svg

<svg xmlns="http://www.w3.org/2000/svg" viewBox="0 0 512 512"><!--! Font Awesome Pro 6.3.0 by @fontawesome - https://fontawesome.com License - https://fontawesome.com/license (Commercial License) Copyright 2023 Fonticons, Inc. --><path d="M464 256A208 208 0 1 0 48 256a208 208 0 1 0 416 0zM0 256a256 256 0 1 1 512 0A256 256 0 1 1 0 256zM192 152v48c0 13.3-10.7 24-24 24s-24-10.7-24-24V152c0-13.3 10.7-24 24-24s24 10.7 24 24zm88 0v48c0 13.3-10.7 24-24 24s-24-10.7-24-24V152c0-13.3 10.7-24 24-24s24 10.7 24 24zm88 0v48c0 13.3-10.7 24-24 24s-24-10.7-24-24V152c0-13.3 10.7-24 24-24s24 10.7 24 24z"/></svg>

<svg xmlns="http://www.w3.org/2000/svg" viewBox="0 0 512 512"><!--! Font Awesome Pro 6.2.0 by @fontawesome - https://fontawesome.com License - https://fontawesome.com/license (Commercial License) Copyright 2022 Fonticons, Inc. --><path d="M192 200C192 213.3 181.3 224 168 224C154.7 224 144 213.3 144 200V152C144 138.7 154.7 128 168 128C181.3 128 192 138.7 192 152V200zM280 200C280 213.3 269.3 224 256 224C242.7 224 232 213.3 232 200V152C232 138.7 242.7 128 256 128C269.3 128 280 138.7 280 152V200zM368 200C368 213.3 357.3 224 344 224C330.7 224 320 213.3 320 200V152C320 138.7 330.7 128 344 128C357.3 128 368 138.7 368 152V200zM512 256C512 397.4 397.4 512 256 512C114.6 512 0 397.4 0 256C0 114.6 114.6 0 256 0C397.4 0 512 114.6 512 256zM256 48C141.1 48 48 141.1 48 256C48 370.9 141.1 464 256 464C370.9 464 464 370.9 464 256C464 141.1 370.9 48 256 48z"/></svg>
